X:252
T: I'll kiss the Wife she bade me
R: reel
M: C|
L: 1/8
K: D
d |\
.A(dcd) .A(dcd) | (bc'b)(ball) (ag)f | aA(dcd) d2(ab) | f2gf bagf | AA(dcd) d2(ab) |
(bc').b.c (ac').e.g .a.b.a.g | (cd').e.c (Bd).g.B | (ae).f.d (df).e.c | edef dgB |]

